assets/images/faq-border-mobile.svg

<svg width="368" height="260" viewBox="0 0 368 260" fill="none" xmlns="http://www.w3.org/2000/svg">
<rect x="1" y="-1" width="366" height="258" transform="matrix(1 0 0 -1 0 258)" stroke="url(#paint0_linear_1223_33)" stroke-width="2"/>
<path d="M73 7L296 6.99998" stroke="url(#paint1_linear_1223_33)" stroke-linecap="round"/>
<path d="M329.507 151.244C330.426 149.476 332.074 148.49 334.451 148.285C336.845 148.076 339.102 148.522 341.223 149.624L343.017 150.556C349.007 153.668 350.795 157.548 348.38 162.197C347.84 163.237 347.115 164.009 346.206 164.514C345.312 165.014 344.396 165.277 343.457 165.305C342.529 165.337 341.617 165.326 340.722 165.27C339.837 165.22 339.04 165.255 338.33 165.375C337.636 165.49 337.19 165.74 336.99 166.124C336.601 166.873 336.089 167.083 335.455 166.753L331.945 164.93C331.664 164.784 331.476 164.574 331.381 164.3C331.301 164.021 331.332 163.746 331.472 163.476C331.937 162.582 332.519 161.88 333.219 161.372C333.919 160.864 334.623 160.55 335.333 160.43C336.047 160.3 336.79 160.217 337.561 160.182C338.343 160.152 339.048 160.155 339.676 160.191C341.158 160.261 342.116 159.88 342.548 159.048C342.98 158.216 343.015 157.449 342.654 156.746C342.303 156.049 341.509 155.379 340.272 154.736L339.476 154.323C337.75 153.426 336.237 153.452 334.938 154.402C333.963 155.136 333.007 155.26 332.071 154.774L330.215 153.81C329.705 153.545 329.404 153.158 329.313 152.648C329.221 152.138 329.286 151.67 329.507 151.244ZM328.227 168.961L328.737 167.978C329.094 167.292 329.554 166.864 330.117 166.694C330.681 166.525 331.29 166.61 331.945 166.951L333.864 167.947C334.519 168.288 334.939 168.737 335.125 169.295C335.31 169.854 335.224 170.476 334.868 171.163L334.357 172.145C334.011 172.811 333.554 173.234 332.985 173.414C332.422 173.583 331.813 173.498 331.157 173.157L329.239 172.161C328.584 171.82 328.163 171.371 327.978 170.812C327.798 170.243 327.881 169.626 328.227 168.961Z" fill="url(#paint2_linear_1223_33)"/>
<path d="M11.8437 76.7294C12.3541 74.8037 13.7471 73.4817 16.0227 72.7634C18.3126 72.0367 20.613 71.9796 22.9239 72.5921L24.8779 73.11C31.4026 74.8393 33.9939 78.2357 32.6519 83.2992C32.3517 84.4319 31.813 85.3439 31.0357 86.035C30.2728 86.7178 29.4364 87.175 28.5264 87.4066C27.6277 87.6413 26.7353 87.8291 25.8493 87.9701C24.9746 88.1141 24.2042 88.3221 23.5381 88.5941C22.8863 88.8578 22.5048 89.1992 22.3937 89.6183C22.1776 90.4339 21.724 90.7501 21.033 90.567L17.2099 89.5537C16.9041 89.4726 16.6747 89.3088 16.5219 89.0622C16.3834 88.8072 16.3531 88.5325 16.4312 88.238C16.6894 87.2638 17.1045 86.4525 17.6764 85.8039C18.2484 85.1554 18.8674 84.6951 19.5336 84.4231C20.2027 84.1397 20.9097 83.8967 21.6544 83.694C22.4105 83.4944 23.0991 83.3435 23.7202 83.2414C25.182 82.9863 26.033 82.4056 26.2732 81.4994C26.5133 80.5932 26.3805 79.8366 25.8745 79.2297C25.3799 78.6258 24.4586 78.1452 23.1107 77.788L22.2441 77.5583C20.3637 77.0599 18.8934 77.4158 17.8331 78.626C17.0411 79.5557 16.1354 79.8854 15.1159 79.6152L13.094 79.0793C12.5389 78.9322 12.161 78.6199 11.9602 78.1423C11.7595 77.6648 11.7206 77.1938 11.8437 76.7294ZM14.4611 94.2988L14.7448 93.2284C14.943 92.4807 15.2985 91.9627 15.8114 91.6744C16.3242 91.386 16.9375 91.3363 17.6511 91.5255L19.7411 92.0794C20.4547 92.2686 20.9629 92.6154 21.2656 93.12C21.5683 93.6245 21.6206 94.2506 21.4225 94.9982L21.1387 96.0687C20.9466 96.7937 20.5926 97.306 20.0767 97.6057C19.5638 97.8941 18.9506 97.9437 18.2369 97.7546L16.147 97.2006C15.4333 97.0115 14.9252 96.6646 14.6224 96.1601C14.3227 95.6442 14.269 95.0238 14.4611 94.2988Z" fill="url(#paint3_linear_1223_33)"/>
<path d="M330.326 38.4971C329.442 36.7122 329.619 34.7999 330.857 32.7603C332.101 30.7049 333.794 29.1464 335.936 28.0848L337.747 27.187C343.795 24.1893 347.982 25.0372 350.309 29.7305C350.829 30.7805 351.025 31.8215 350.895 32.8535C350.771 33.8698 350.443 34.7648 349.911 35.5386C349.39 36.3072 348.842 37.0364 348.268 37.7262C347.705 38.4108 347.263 39.0748 346.941 39.7183C346.624 40.3461 346.562 40.8542 346.755 41.2427C347.129 41.9987 346.997 42.5354 346.356 42.8529L342.812 44.6094C342.529 44.7499 342.248 44.7777 341.971 44.6929C341.699 44.5924 341.495 44.4056 341.36 44.1326C340.912 43.2297 340.69 42.3458 340.693 41.4811C340.696 40.6164 340.858 39.8622 341.18 39.2187C341.497 38.5647 341.869 37.9162 342.296 37.273C342.733 36.6247 343.151 36.0575 343.551 35.5715C344.483 34.4165 344.741 33.4191 344.324 32.5791C343.908 31.7391 343.31 31.2575 342.529 31.1342C341.759 31.0058 340.749 31.2512 339.5 31.8705L338.697 32.2687C336.954 33.1326 336.082 34.369 336.082 35.9779C336.099 37.1991 335.634 38.0439 334.689 38.5123L332.815 39.4412C332.301 39.6963 331.811 39.7103 331.345 39.4833C330.879 39.2563 330.54 38.9276 330.326 38.4971ZM343.871 49.9901L343.379 48.9979C343.035 48.3049 342.962 47.681 343.157 47.1261C343.353 46.5713 343.782 46.1299 344.443 45.8021L346.381 44.8419C347.042 44.514 347.653 44.4401 348.213 44.6203C348.773 44.8004 349.225 45.237 349.569 45.9299L350.06 46.9222C350.393 47.5941 350.465 48.2128 350.274 48.7781C350.078 49.333 349.649 49.7744 348.988 50.1022L347.051 51.0624C346.389 51.3903 345.779 51.4642 345.218 51.284C344.653 51.0934 344.204 50.6621 343.871 49.9901Z" fill="url(#paint4_linear_1223_33)"/>
<path d="M314.57 228.61C313.685 226.825 313.862 224.913 315.101 222.873C316.345 220.818 318.038 219.26 320.18 218.198L321.991 217.3C328.039 214.302 332.226 215.15 334.552 219.844C335.073 220.894 335.268 221.935 335.139 222.967C335.015 223.983 334.687 224.878 334.155 225.652C333.633 226.42 333.085 227.15 332.512 227.839C331.949 228.524 331.506 229.188 331.184 229.831C330.868 230.459 330.806 230.967 330.998 231.356C331.373 232.112 331.24 232.649 330.599 232.966L327.056 234.723C326.772 234.863 326.492 234.891 326.214 234.806C325.942 234.706 325.738 234.519 325.603 234.246C325.156 233.343 324.933 232.459 324.936 231.594C324.939 230.73 325.102 229.975 325.424 229.332C325.74 228.678 326.112 228.029 326.539 227.386C326.976 226.738 327.395 226.171 327.795 225.685C328.726 224.53 328.984 223.532 328.568 222.692C328.151 221.852 327.553 221.371 326.772 221.247C326.002 221.119 324.993 221.364 323.743 221.984L322.94 222.382C321.197 223.246 320.325 224.482 320.325 226.091C320.342 227.312 319.878 228.157 318.933 228.625L317.059 229.554C316.544 229.809 316.054 229.823 315.588 229.596C315.123 229.369 314.783 229.041 314.57 228.61ZM328.114 240.103L327.622 239.111C327.279 238.418 327.205 237.794 327.401 237.239C327.597 236.684 328.025 236.243 328.687 235.915L330.624 234.955C331.285 234.627 331.896 234.553 332.456 234.733C333.017 234.914 333.468 235.35 333.812 236.043L334.304 237.035C334.637 237.707 334.708 238.326 334.517 238.891C334.321 239.446 333.893 239.888 333.231 240.215L331.294 241.176C330.633 241.503 330.022 241.577 329.462 241.397C328.896 241.207 328.447 240.775 328.114 240.103Z" fill="url(#paint5_linear_1223_33)"/>
<path d="M14.7123 156.633C13.7936 154.866 13.934 152.95 15.1334 150.887C16.3379 148.809 18.0007 147.218 20.122 146.116L21.9157 145.183C27.9051 142.071 32.1076 142.838 34.5233 147.486C35.0637 148.526 35.2791 149.563 35.1695 150.597C35.0649 151.616 34.754 152.517 34.2369 153.301C33.7302 154.079 33.1966 154.819 32.6363 155.519C32.0863 156.215 31.6566 156.887 31.347 157.537C31.0425 158.17 30.9901 158.679 31.1901 159.064C31.5792 159.813 31.4566 160.352 30.8223 160.682L27.3129 162.506C27.0321 162.652 26.7522 162.685 26.4732 162.605C26.1992 162.51 25.9919 162.327 25.8514 162.057C25.3866 161.163 25.1475 160.283 25.1339 159.418C25.1204 158.554 25.2684 157.797 25.578 157.147C25.8821 156.487 26.2414 155.832 26.6558 155.181C27.0805 154.524 27.4882 153.949 27.8788 153.455C28.7882 152.283 29.0268 151.281 28.5944 150.449C28.1621 149.617 27.5546 149.147 26.7719 149.038C25.9996 148.925 24.9948 149.189 23.7574 149.832L22.962 150.246C21.2358 151.143 20.388 152.396 20.4184 154.004C20.4585 155.225 20.0106 156.079 19.0747 156.565L17.2186 157.53C16.7091 157.794 16.2194 157.818 15.7495 157.6C15.2796 157.382 14.9339 157.06 14.7123 156.633ZM28.4739 167.865L27.9632 166.883C27.6065 166.196 27.5208 165.574 27.706 165.015C27.8912 164.457 28.3113 164.007 28.9664 163.667L30.8849 162.67C31.54 162.329 32.1492 162.244 32.7127 162.413C33.2762 162.583 33.7363 163.01 34.093 163.697L34.6037 164.679C34.9495 165.345 35.0326 165.962 34.8528 166.531C34.6676 167.089 34.2474 167.539 33.5923 167.879L31.6739 168.876C31.0188 169.217 30.4095 169.302 29.846 169.133C29.2771 168.953 28.8197 168.531 28.4739 167.865Z" fill="url(#paint6_linear_1223_33)"/>
<path d="M20.6708 224.807C19.8113 222.294 20.3774 219.797 22.3692 217.316C24.3708 214.815 26.8796 213.048 29.8956 212.017L32.4459 211.145C40.9617 208.233 46.3496 210.081 48.6096 216.69C49.1152 218.168 49.1928 219.578 48.8426 220.92C48.502 222.242 47.9128 223.368 47.0751 224.299C46.2522 225.224 45.4016 226.093 44.5234 226.905C43.66 227.712 42.9597 228.513 42.4223 229.308C41.8947 230.083 41.7244 230.744 41.9114 231.291C42.2755 232.355 42.0066 233.042 41.1047 233.35L36.115 235.057C35.7158 235.193 35.3402 235.181 34.9881 235.021C34.6458 234.841 34.4089 234.558 34.2774 234.174C33.8426 232.903 33.7023 231.696 33.8565 230.553C34.0107 229.41 34.3565 228.442 34.8938 227.647C35.4261 226.837 36.0302 226.045 36.7061 225.268C37.3967 224.487 38.0487 223.81 38.6619 223.237C40.0941 221.872 40.608 220.598 40.2035 219.416C39.7991 218.233 39.0917 217.492 38.0813 217.194C37.0858 216.89 35.7084 217.039 33.949 217.641L32.818 218.028C30.3638 218.867 28.9967 220.35 28.7167 222.477C28.5267 224.094 27.7664 225.13 26.4358 225.585L23.7968 226.488C23.0723 226.736 22.4221 226.669 21.8459 226.288C21.2698 225.907 20.8781 225.413 20.6708 224.807ZM36.5792 242.354L36.1015 240.957C35.7678 239.981 35.7786 239.143 36.1339 238.444C36.4891 237.744 37.1325 237.235 38.0639 236.917L40.7916 235.984C41.723 235.665 42.5433 235.674 43.2525 236.009C43.9617 236.345 44.4832 237 44.8169 237.976L45.2946 239.373C45.6182 240.319 45.6049 241.15 45.2547 241.864C44.8994 242.563 44.2561 243.072 43.3246 243.391L40.5969 244.324C39.6655 244.642 38.8452 244.634 38.136 244.298C37.4217 243.948 36.9028 243.3 36.5792 242.354Z" fill="url(#paint7_linear_1223_33)"/>
<defs>
<linearGradient id="paint0_linear_1223_33" x1="175.431" y1="12.4601" x2="178.012" y2="276.819" gradientUnits="userSpaceOnUse">
<stop stop-color="#FFB75E"/>
<stop offset="0.857921" stop-color="#FFB75E" stop-opacity="0"/>
</linearGradient>
<linearGradient id="paint1_linear_1223_33" x1="296" y1="7.00002" x2="295.781" y2="13.9861" gradientUnits="userSpaceOnUse">
<stop stop-color="#FFDCB1"/>
<stop offset="0.506091" stop-color="#FFB75E"/>
<stop offset="1" stop-color="#FFE2BF" stop-opacity="0"/>
</linearGradient>
<linearGradient id="paint2_linear_1223_33" x1="348.952" y1="138.255" x2="334.262" y2="166.533" gradientUnits="userSpaceOnUse">
<stop stop-color="#FFB75E"/>
<stop offset="1" stop-color="#FFE5C5"/>
</linearGradient>
<linearGradient id="paint3_linear_1223_33" x1="27.9848" y1="59.8097" x2="19.8206" y2="90.6129" gradientUnits="userSpaceOnUse">
<stop stop-color="#FFD9A9"/>
<stop offset="1" stop-color="#FFE5C5"/>
</linearGradient>
<linearGradient id="paint4_linear_1223_33" x1="331.322" y1="15.1344" x2="345.474" y2="43.6862" gradientUnits="userSpaceOnUse">
<stop stop-color="#FFD9A9"/>
<stop offset="1" stop-color="#FFE5C5"/>
</linearGradient>
<linearGradient id="paint5_linear_1223_33" x1="315.566" y1="205.248" x2="334.368" y2="243.181" gradientUnits="userSpaceOnUse">
<stop stop-color="#FFD9A9"/>
<stop offset="1" stop-color="#FFE5C5"/>
</linearGradient>
<linearGradient id="paint6_linear_1223_33" x1="15.2611" y1="133.256" x2="29.9566" y2="161.532" gradientUnits="userSpaceOnUse">
<stop stop-color="#FFD9A9"/>
<stop offset="1" stop-color="#FFE5C5"/>
</linearGradient>
<linearGradient id="paint7_linear_1223_33" x1="26.0457" y1="194.096" x2="39.7451" y2="234.155" gradientUnits="userSpaceOnUse">
<stop stop-color="#FFB75E"/>
<stop offset="1" stop-color="#FFE5C5"/>
</linearGradient>
</defs>
</svg>

<svg width="368" height="260" fill="none" xmlns="http://www.w3.org/2000/svg"><path transform="matrix(1 0 0 -1 0 258)" stroke="url(#a)" stroke-width="2" d="M1-1h366v258H1z"/><path d="M73 7h223" stroke="url(#b)" stroke-linecap="round"/><path d="M329.507 151.244c.919-1.768 2.567-2.754 4.944-2.959 2.394-.209 4.651.237 6.772 1.339l1.794.932c5.99 3.112 7.778 6.992 5.363 11.641-.54 1.04-1.265 1.812-2.174 2.317-.894.5-1.81.763-2.749.791a28.22 28.22 0 0 1-2.735-.035c-.885-.05-1.682-.015-2.392.105-.694.115-1.14.365-1.34.749-.389.749-.901.959-1.535.629l-3.51-1.823a1.106 1.106 0 0 1-.564-.63 1.084 1.084 0 0 1 .091-.824c.465-.894 1.047-1.596 1.747-2.104.7-.508 1.404-.822 2.114-.942.714-.13 1.457-.213 2.228-.248.782-.03 1.487-.027 2.115.009 1.482.07 2.44-.311 2.872-1.143.432-.832.467-1.599.106-2.302-.351-.697-1.145-1.367-2.382-2.01l-.796-.413c-1.726-.897-3.239-.871-4.538.079-.975.734-1.931.858-2.867.372l-1.856-.964c-.51-.265-.811-.652-.902-1.162a2.142 2.142 0 0 1 .194-1.404Zm-1.28 17.717.51-.983c.357-.686.817-1.114 1.38-1.284.564-.169 1.173-.084 1.828.257l1.919.996c.655.341 1.075.79 1.261 1.348.185.559.099 1.181-.257 1.868l-.511.982c-.346.666-.803 1.089-1.372 1.269-.563.169-1.172.084-1.828-.257l-1.918-.996c-.655-.341-1.076-.79-1.261-1.349-.18-.569-.097-1.186.249-1.851Z" fill="url(#c)"/><path d="M11.844 76.73c.51-1.926 1.903-3.248 4.179-3.967 2.29-.726 4.59-.783 6.9-.17l1.955.517c6.525 1.73 9.116 5.126 7.774 10.19-.3 1.132-.839 2.044-1.616 2.735-.763.683-1.6 1.14-2.51 1.372-.898.234-1.79.422-2.677.563-.874.144-1.645.352-2.31.624-.653.264-1.034.605-1.145 1.024-.216.816-.67 1.132-1.361.949l-3.823-1.013a1.107 1.107 0 0 1-.688-.492 1.085 1.085 0 0 1-.09-.824c.257-.974.673-1.785 1.244-2.434.572-.649 1.191-1.109 1.858-1.38.669-.284 1.376-.527 2.12-.73.756-.2 1.445-.35 2.066-.453 1.462-.255 2.313-.835 2.553-1.742.24-.906.108-1.662-.398-2.27-.495-.603-1.416-1.084-2.764-1.441l-.867-.23c-1.88-.498-3.35-.142-4.41 1.068-.793.93-1.699 1.26-2.718.99l-2.022-.537c-.555-.147-.933-.46-1.134-.937-.2-.477-.24-.948-.116-1.413Zm2.617 17.569.284-1.07c.198-.748.554-1.266 1.066-1.555.513-.288 1.127-.338 1.84-.149l2.09.554c.714.19 1.222.536 1.525 1.041.302.504.355 1.13.157 1.878l-.284 1.07c-.192.726-.546 1.238-1.062 1.538-.513.288-1.126.338-1.84.149l-2.09-.554c-.714-.19-1.222-.536-1.525-1.04-.3-.517-.353-1.137-.16-1.862Z" fill="url(#d)"/><path d="M330.326 38.497c-.884-1.785-.707-3.697.531-5.737a12.112 12.112 0 0 1 5.079-4.675l1.811-.898c6.048-2.998 10.235-2.15 12.562 2.543.52 1.05.716 2.091.586 3.123-.124 1.017-.452 1.912-.984 2.686a27.83 27.83 0 0 1-1.643 2.187c-.563.685-1.005 1.349-1.327 1.992-.317.628-.379 1.136-.186 1.525.374.756.242 1.292-.399 1.61l-3.544 1.756c-.283.14-.564.169-.841.084a1.084 1.084 0 0 1-.611-.56c-.448-.903-.67-1.787-.667-2.652.003-.865.165-1.619.487-2.262.317-.654.689-1.303 1.116-1.946.437-.648.855-1.216 1.255-1.702.932-1.154 1.19-2.152.773-2.992-.416-.84-1.014-1.322-1.795-1.445-.77-.128-1.78.117-3.029.736l-.803.399c-1.743.864-2.615 2.1-2.615 3.709.017 1.221-.448 2.066-1.393 2.534l-1.874.93c-.514.254-1.004.268-1.47.041a2.144 2.144 0 0 1-1.019-.986Zm13.545 11.493-.492-.992c-.344-.693-.417-1.317-.222-1.872.196-.555.625-.996 1.286-1.324l1.938-.96c.661-.328 1.272-.402 1.832-.222.56.18 1.012.617 1.356 1.31l.491.992c.333.672.405 1.29.214 1.856-.196.555-.625.996-1.286 1.324l-1.937.96c-.662.328-1.272.402-1.833.222-.565-.19-1.014-.622-1.347-1.294Z" fill="url(#e)"/><path d="M314.57 228.61c-.885-1.785-.708-3.697.531-5.737a12.116 12.116 0 0 1 5.079-4.675l1.811-.898c6.048-2.998 10.235-2.15 12.561 2.544.521 1.05.716 2.091.587 3.123-.124 1.016-.452 1.911-.984 2.685a28.284 28.284 0 0 1-1.643 2.187c-.563.685-1.006 1.349-1.328 1.992-.316.628-.378 1.136-.186 1.525.375.756.242 1.293-.399 1.61l-3.543 1.757a1.11 1.11 0 0 1-.842.083 1.081 1.081 0 0 1-.611-.56c-.447-.903-.67-1.787-.667-2.652.003-.864.166-1.619.488-2.262a16.49 16.49 0 0 1 1.115-1.946 22.37 22.37 0 0 1 1.256-1.701c.931-1.155 1.189-2.153.773-2.993-.417-.84-1.015-1.321-1.796-1.445-.77-.128-1.779.117-3.029.737l-.803.398c-1.743.864-2.615 2.1-2.615 3.709.017 1.221-.447 2.066-1.392 2.534l-1.874.929c-.515.255-1.005.269-1.471.042-.465-.227-.805-.555-1.018-.986Zm13.544 11.493-.492-.992c-.343-.693-.417-1.317-.221-1.872.196-.555.624-.996 1.286-1.324l1.937-.96c.661-.328 1.272-.402 1.832-.222.561.181 1.012.617 1.356 1.31l.492.992c.333.672.404 1.291.213 1.856-.196.555-.624.997-1.286 1.324l-1.937.961c-.661.327-1.272.401-1.832.221-.566-.19-1.015-.622-1.348-1.294Z" fill="url(#f)"/><path d="M14.712 156.633c-.918-1.767-.778-3.683.421-5.746a12.113 12.113 0 0 1 4.989-4.771l1.794-.933c5.99-3.112 10.192-2.345 12.607 2.303.54 1.04.756 2.077.646 3.111-.104 1.019-.415 1.92-.932 2.704a28 28 0 0 1-1.6 2.218c-.55.696-.98 1.368-1.29 2.018-.305.633-.357 1.142-.157 1.527.39.749.267 1.288-.368 1.618l-3.51 1.824c-.28.146-.56.179-.839.099a1.084 1.084 0 0 1-.622-.548c-.464-.894-.703-1.774-.717-2.639-.014-.864.134-1.621.444-2.271.304-.66.663-1.315 1.078-1.966.425-.657.832-1.232 1.223-1.726.91-1.172 1.148-2.174.715-3.006-.432-.832-1.04-1.302-1.822-1.411-.772-.113-1.777.151-3.015.794l-.795.414c-1.726.897-2.574 2.15-2.544 3.758.04 1.221-.407 2.075-1.343 2.561l-1.856.965c-.51.264-1 .288-1.47.07-.47-.218-.815-.54-1.037-.967Zm13.762 11.232-.51-.982c-.357-.687-.443-1.309-.258-1.868.185-.558.605-1.008 1.26-1.348l1.919-.997c.655-.341 1.264-.426 1.828-.257.563.17 1.023.597 1.38 1.284l.51.982c.346.666.43 1.283.25 1.852-.185.558-.606 1.008-1.26 1.348l-1.92.997c-.654.341-1.263.426-1.827.257-.569-.18-1.026-.602-1.372-1.268Z" fill="url(#g)"/><path d="M20.67 224.807c-.859-2.513-.293-5.01 1.7-7.491 2-2.501 4.51-4.268 7.526-5.299l2.55-.872c8.516-2.912 13.904-1.064 16.164 5.545.505 1.478.583 2.888.233 4.23-.341 1.322-.93 2.448-1.768 3.379a37.416 37.416 0 0 1-2.552 2.606c-.863.807-1.563 1.608-2.1 2.403-.528.775-.699 1.436-.512 1.983.364 1.064.096 1.751-.806 2.059l-4.99 1.707c-.4.136-.775.124-1.127-.036a1.447 1.447 0 0 1-.71-.847c-.435-1.271-.576-2.478-.422-3.621.155-1.143.5-2.111 1.038-2.906a22.231 22.231 0 0 1 1.812-2.379 29.864 29.864 0 0 1 1.956-2.031c1.432-1.365 1.946-2.639 1.541-3.821-.404-1.183-1.111-1.924-2.122-2.222-.995-.304-2.373-.155-4.132.447l-1.131.387c-2.454.839-3.821 2.322-4.101 4.449-.19 1.617-.95 2.653-2.281 3.108l-2.64.903c-.724.248-1.374.181-1.95-.2-.576-.381-.968-.875-1.175-1.481Zm15.91 17.547-.478-1.397c-.334-.976-.323-1.814.032-2.513.355-.7.998-1.209 1.93-1.527l2.728-.933c.931-.319 1.751-.31 2.46.025.71.336 1.231.991 1.565 1.967l.478 1.397c.323.946.31 1.777-.04 2.491-.356.699-.999 1.208-1.93 1.527l-2.728.933c-.931.318-1.752.31-2.461-.026-.714-.35-1.233-.998-1.557-1.944Z" fill="url(#h)"/><defs><linearGradient id="a" x1="175.431" y1="12.46" x2="178.012" y2="276.819" gradientUnits="userSpaceOnUse"><stop stop-color="#FFB75E"/><stop offset=".858" stop-color="#FFB75E" stop-opacity="0"/></linearGradient><linearGradient id="b" x1="296" y1="7" x2="295.781" y2="13.986" gradientUnits="userSpaceOnUse"><stop stop-color="#FFDCB1"/><stop offset=".506" stop-color="#FFB75E"/><stop offset="1" stop-color="#FFE2BF" stop-opacity="0"/></linearGradient><linearGradient id="c" x1="348.952" y1="138.255" x2="334.262" y2="166.533" gradientUnits="userSpaceOnUse"><stop stop-color="#FFB75E"/><stop offset="1" stop-color="#FFE5C5"/></linearGradient><linearGradient id="d" x1="27.985" y1="59.81" x2="19.821" y2="90.613" gradientUnits="userSpaceOnUse"><stop stop-color="#FFD9A9"/><stop offset="1" stop-color="#FFE5C5"/></linearGradient><linearGradient id="e" x1="331.322" y1="15.134" x2="345.474" y2="43.686" gradientUnits="userSpaceOnUse"><stop stop-color="#FFD9A9"/><stop offset="1" stop-color="#FFE5C5"/></linearGradient><linearGradient id="f" x1="315.566" y1="205.248" x2="334.368" y2="243.181" gradientUnits="userSpaceOnUse"><stop stop-color="#FFD9A9"/><stop offset="1" stop-color="#FFE5C5"/></linearGradient><linearGradient id="g" x1="15.261" y1="133.256" x2="29.957" y2="161.532" gradientUnits="userSpaceOnUse"><stop stop-color="#FFD9A9"/><stop offset="1" stop-color="#FFE5C5"/></linearGradient><linearGradient id="h" x1="26.046" y1="194.096" x2="39.745" y2="234.155" gradientUnits="userSpaceOnUse"><stop stop-color="#FFB75E"/><stop offset="1" stop-color="#FFE5C5"/></linearGradient></defs></svg>
